src/content/blog/interaction-to-next-paint-inp-everything-you-need-to-know/_assets/inp-progress-indicator.svg

<svg width="311" height="311" viewBox="0 0 311 311" fill="none" xmlns="http://www.w3.org/2000/svg">
<path d="M309.711 155.957C309.711 241.481 240.38 310.812 154.855 310.812C69.3312 310.812 0 241.481 0 155.957C0 70.4324 69.3312 1.1012 154.855 1.1012C240.38 1.1012 309.711 70.4324 309.711 155.957ZM43.882 155.957C43.882 217.246 93.5665 266.93 154.855 266.93C216.144 266.93 265.829 217.246 265.829 155.957C265.829 94.6677 216.144 44.9831 154.855 44.9831C93.5665 44.9831 43.882 94.6677 43.882 155.957Z" fill="#F4F4F5"/>
<path d="M281.381 111.945C293.369 107.825 299.894 94.6587 294.049 83.4109C281.342 58.9568 262.266 38.2048 238.655 23.4623C215.045 8.71972 188.025 0.689109 160.475 0.00621382C147.803 -0.307889 138.837 11.3347 140.398 23.914V23.914C141.959 36.4932 153.502 45.1715 166.13 46.2759C183.141 47.7638 199.677 53.2405 214.343 62.3982C229.01 71.5559 241.189 84.0094 249.994 98.6414C256.529 109.502 269.394 116.065 281.381 111.945V111.945Z" fill="#A7F3D0"/>
</svg>

<svg xmlns="http://www.w3.org/2000/svg" width="311" height="311" fill="none" viewBox="0 0 311 311"><path fill="#F4F4F5" d="M309.711 155.957c0 85.524-69.331 154.855-154.856 154.855C69.331 310.812 0 241.481 0 155.957 0 70.432 69.331 1.101 154.855 1.101c85.525 0 154.856 69.331 154.856 154.856Zm-265.829 0c0 61.289 49.685 110.973 110.973 110.973 61.289 0 110.974-49.684 110.974-110.973 0-61.29-49.685-110.974-110.974-110.974-61.288 0-110.973 49.685-110.973 110.974Z"/><path fill="#A7F3D0" d="M281.381 111.945c11.988-4.12 18.513-17.286 12.668-28.534A154.851 154.851 0 0 0 160.475.006c-12.672-.314-21.638 11.329-20.077 23.908 1.561 12.58 13.104 21.258 25.732 22.362a108.95 108.95 0 0 1 83.864 52.365c6.535 10.861 19.4 17.424 31.387 13.304Z"/></svg>
